X:81
T:Turf Cutter, The
R:slip jig
S:Altan
Z:hn-slipjig-81
M:9/8
L:1/8
K:Ador
edB ABA Agf | edB def gfg | edB ABA ABA | G2B dB/c/d dgf :|
|: efg aba a2g | efg aba ged |1 efg aba a2g | ede age dBG :|
[2 ede aga b2a | gfg age dBG ||

